bg-footer.svg

<svg height="361" viewBox="0 0 438 361" width="438" xmlns="http://www.w3.org/2000/svg"><g fill="#fff" fill-opacity=".05"><path d="m358.1 16.8c-.7-4.8-2.7-8.8-6.1-11.7s-8.6-3.8-15.5-2.7l.3-.1c-9.7 1.5-16.5 4.8-20.4 9.9-5.5 1.8-9.7 4.5-12.7 8-4.4 5.2-6 12.3-4.6 21.1.9 5.3 3.7 9.3 8.3 11.9 3 1.7 6.8 2.6 11.4 2.6 2.5 0 5.2-.2 8.1-.7 8.5-1.4 14.7-5.2 18.2-11.2.9-1.5 1.7-3.1 2.3-4.6 3-1.7 5.3-4 6.9-6.8 3.2-5.5 4.5-10.8 3.8-15.7zm-31.9 33.5c-7.3 1.2-12.8.8-16.4-1.3-3.4-1.9-5.3-4.6-5.9-8.5-1.2-7.3 0-12.9 3.5-17.1 1.5-1.7 3.4-3.2 5.7-4.5-.9 3.4-1 7.3-.3 11.7.8 4.5 3 7.9 7.1 10.2s10.1 2.8 18 1.6c1-.2 1.9-.3 2.8-.6-2.8 4.5-7.7 7.4-14.5 8.5z"/><path d="m376.8 204.4-21.4-154.1-30.1 6.5.8 5.1-14.8 3.2 11.9 74.8c-.9-3.2-1.8-6.3-2.5-9.3l-.1-.5c-3.4-13.4-8.9-22.6-12.9-28.6s-8.2-10.4-12.6-13.4-7.7-4.6-10-4.9-5.9.2-10.5 1.3c-11.1 2.6-22.2 8.8-33.2 18.7-5.8 3.8-11.6 8.6-17.3 14.3-3.6 3.6-6.3 8.5-8.2 14.7-1.3-4.7-2.6-9.1-3.7-13.2l-.2-.5c-3.1-12-7.9-20.4-11.4-25.8-3.4-5.4-7.1-9.4-10.9-12.1s-6.7-4.2-8.7-4.5c-2-.2-5 .2-9.1 1.1-9.2 2.1-18.4 7.3-27.4 15.6-5.4 3.5-10.7 8-16 13.4-6.6 6.9-9.8 19.2-9.4 37.1-11.3-23-32-29.4-62.5-19.1-8.5 2.9-17 7.8-25.6 14.3s-14.4 12.9-18 18.8c.4 1 .8 2 1.2 2.9-5.9 5.1-10.4 10.2-13.5 15.3l-.6 1 .4 1.1c12.7 32.4 24.9 61.1 37.3 87.9l21 44.7c22.5 48.7 23.2 49 24.5 49.8l1 .5 18.7-7.2 7.9-3.7c11.9-5.5 22.9-12.9 32.5-21.9 10-9.5 16.1-18.2 18.5-26.7.7-2.5 1.2-5 1.4-7.4 3.1-4.4 5.3-8.7 6.5-12.8 1-3.5 1.5-6.9 1.5-10.4 2.3.5 4.6.8 6.9.8 2.5 0 5-.3 7.5-.8 7.3-1.6 13.2-4.2 17.9-7.8 5-3.7 9.3-9.4 12.7-16.8v-.1c2.6-3 4.9-6.8 6.9-11.2.3-.7.7-1.5.9-2.3 8.6 32.1 20 52.5 34.5 62 6.2 4.1 13 6.1 20.2 6.1 2.9 0 5.9-.3 9-1 8.1-1.8 14.8-4.7 20.6-8.8 5.6-4 10.4-10 14.3-17.8 3.5-3.6 6.5-8.2 9.1-13.5 3.7-7.6 5.9-18.1 6-31.2l30-11.7-1.1-8zm-210.3-94.9c5.5-1.2 10.8 4.7 16 17.8s9.1 26.5 11.8 40.1 3.8 27.5 3.1 41.6-2.8 21.5-6.3 22.2c-.5 0-1-.1-1.6-.4.5-3.2.9-7 1.1-11.5.7-14.1-.4-28.3-3.2-42.2-2.8-14-6.8-27.6-11.9-40.5-4.7-11.9-9.8-18.3-15.3-19.3 1.3-4.6 3.4-7.2 6.3-7.8zm-7.1 12.6c3.6.8 7.7 6.4 11.6 16.3 5 12.6 8.9 26 11.7 39.7 2.7 13.5 3.8 27.2 3.1 41-.2 3.2-.4 5.9-.6 8.1-2.5-3.1-5.2-7.9-8.2-14.5-5.4-12.2-9.6-26.3-12.7-42.3-4.3-22.2-5.9-38.2-4.9-48.3zm-34.1 68.3c4.2 20.3 9.2 36.6 15.1 49.2-8.9.1-16.7 1.3-23.3 3.6 4.5-20.2 7.3-37.9 8.2-52.8zm-21.2 73.3-.6 2.7 4.1-1.4c3.9-1.3 8.2-2.3 13-2.9.7.2 1.4.5 2.1.9 4.9 2.3 8.2 5.6 10.2 10l1 1.7c1.3 4.3 1.3 6.7.9 10.3s-1.4 6.6-2.8 8.9c-1.1 1.8-2.7 3.5-4.6 5.1 0-.6-.1-1.3-.2-2.1l-.5-2-1.6-3.5c-2.3-4.9-6-8.5-11.4-11.1-2.2-1-4.4-1.7-6.8-2l-5.8-12.7c.9-.8 1.9-1.4 3-1.9zm18.1 39c-1.3.8-2.5 1.4-3.4 1.8l-9.5-20.7c.7.2 1.4.5 2.1.8 3.1 1.5 5.5 3.3 7.2 5.6l1.4 3.1c1.5 3.4 2.3 6.6 2.2 9.4zm-55.2-152.5c7.5-2.6 13.2.3 17 8.4 10.9 23.3 12.9 51.2 5.8 83.9l-3.8-9.4c1.1-20.9-2.3-39.7-10-56.1-3.9-8.3-9.2-10.8-14.1-10.8-1 0-2.1.1-3.1.3l-3.2-7.8c3.6-4.2 7.5-7.1 11.4-8.5zm14.1 71.3-20.5-50.2c4.7-.5 8.1 2 10.9 7.9 5.9 12.5 9.2 26.7 9.6 42.3zm59 102.6c-9.2 8.7-19.7 15.7-31.2 21l-7.7 3.6-15.8 6.1c-3.5-6.2-15.4-31.9-22.1-46.4l-21-44.7c-12.3-26.2-24.3-54.5-36.8-86.4 2.6-4 6.1-8 10.6-12 10.2 25.8 21.5 52.6 34.2 80l21 44.7c14.6 31.5 22.3 47.7 23.4 48.3l17.7-6.8 7.8-3.6c11.6-5.4 22.2-12.5 31.8-21.5 1.6-1.5 3.1-3 4.5-4.5-2.5 6.9-8.1 14.3-16.4 22.2zm60.7-65.4c-4.2 3.2-9.4 5.5-16 7-5 1.1-9.6 1-13.9-.3-.5-2.8-1.4-5.5-2.6-8.3-5-10.9-12.5-16.7-22.3-17.4-6.3-12.8-11.7-30-16.1-51.7-8.4-41.5-7.6-67.8 2.3-78.1.5-.6 1-1.1 1.6-1.6-4.7 14.1-3.7 37.4 2.9 70 11.9 58.9 31 85.4 57.9 79.6 4.1-.9 7.8-2.2 11.2-3.8-1.7 1.7-3.3 3.3-5 4.6zm66.9-138c6.4-1.4 12.5 5.1 18.3 19.6s10.1 29.4 13.2 44.5c3 15.1 4.1 30.5 3.1 46.3-1 15.6-3.5 23.9-7.6 24.8-.7 0-1.4-.2-2.2-.5.6-3.5 1.1-7.7 1.4-12.6 1-15.7-.1-31.5-3.2-46.9-3-15.2-7.5-30.3-13.3-44.9-5.3-13.1-10.9-20.1-17.1-21.2 1.4-5.4 3.9-8.4 7.4-9.1zm-8.3 13.9c5.5 1 10.2 10.2 13.5 18.1 5.7 14.3 10.1 29.2 13 44.1 3 15 4 30.3 3.1 45.6-.2 3.7-.5 6.8-.9 9.4-3-3.4-6.1-8.9-9.5-16.5-6-13.6-10.8-29.3-14.2-47-4.7-24.6-6.4-42.5-5-53.7zm46.4 151.9c-5.2 3.8-11.4 6.4-18.8 8-9.5 2.1-17.9.6-25.5-4.4-14.5-9.5-26.1-32.2-34.6-67.5.9-4.9 1.3-10.5 1.3-16.9 0-12.1-1.7-26.7-5-43.5-1.3-7-2.9-13.6-4.6-19.7 1.4-9.7 4.3-16.8 8.8-21.3.8-.8 1.6-1.6 2.5-2.4-5.9 15.7-5 41.9 2.3 78.6 13.1 65.6 34.9 94.8 66.2 88 5-1.1 9.6-2.7 13.7-4.8-1.9 2.4-4 4.4-6.3 5.9zm35.4-65-24.3-152.5 10-2.2 23.7 147.8 11.8-4.6.4 3zm96.3-26.5c-.4-4.3-2.2-7.6-5.6-10-3.3-2.4-8.6-3.4-15.6-2.7-6.2.6-10.9 2.9-14 6.8-6.3 1.2-11 4.3-14 9.2-3.3 5.4-4.8 10.7-4.5 15.9.3 5.3 2.1 9.7 5.4 13.1 3 3 7.2 4.5 12.5 4.5 1 0 2 0 3-.1l7.1-1.5c5.6-1.5 9.8-4 12.8-7.6 1.4-1.7 2.5-3.7 3.3-5.9 7.5-4.1 10.7-11.3 9.6-21.7zm-16.5 24.3c-3.3 4-9 6.4-16.9 7.1l-3.2.3c-3.5-.1-6.2-1.2-8-3-2.4-2.5-3.7-5.8-4-10-.3-4.1 1-8.5 3.8-13 1.5-2.5 3.6-4.4 6.4-5.6-1.4 3.4-2 6.8-1.8 10 .3 4.7 1.8 8.6 4.7 11.5s7.4 4.2 13.6 3.6l-.4-.2c2.2-.2 4.2-.5 6.1-1-.2.2-.3.3-.3.3zm6.5-52.3-4.9-166.6-32 6.4.3 4.1-13.6 2.8 12.6 167 29.3-2.7-.3-10.2zm-13.2 6.5-19.8 1.8-12-157.8 8.8-1.8 11.6 153.4 11.2-1z"/></g></svg>

<svg xmlns="http://www.w3.org/2000/svg" width="438" height="361" viewBox="0 0 438 361">
  <g fill="#FFF" fill-opacity=".05">
    <path d="M358.1,16.8 C357.4,12 355.4,8 352,5.1 C348.6,2.2 343.4,1.3 336.5,2.4 L336.8,2.3 C327.1,3.8 320.3,7.1 316.4,12.2 C310.9,14 306.7,16.7 303.7,20.2 C299.3,25.4 297.7,32.5 299.1,41.3 C300,46.6 302.8,50.6 307.4,53.2 C310.4,54.9 314.2,55.8 318.8,55.8 C321.3,55.8 324,55.6 326.9,55.1 C335.4,53.7 341.6,49.9 345.1,43.9 C346,42.4 346.8,40.8 347.4,39.3 C350.4,37.6 352.7,35.3 354.3,32.5 C357.5,27 358.8,21.7 358.1,16.8 Z M326.2,50.3 C318.9,51.5 313.4,51.1 309.8,49 C306.4,47.1 304.5,44.4 303.9,40.5 C302.7,33.2 303.9,27.6 307.4,23.4 C308.9,21.7 310.8,20.2 313.1,18.9 C312.2,22.3 312.1,26.2 312.8,30.6 C313.6,35.1 315.8,38.5 319.9,40.8 C324,43.1 330,43.6 337.9,42.4 C338.9,42.2 339.8,42.1 340.7,41.8 C337.9,46.3 333,49.2 326.2,50.3 Z"/>
    <path d="M376.8 204.4L355.4 50.3 325.3 56.8 326.1 61.9 311.3 65.1 323.2 139.9C322.3 136.7 321.4 133.6 320.7 130.6L320.6 130.1C317.2 116.7 311.7 107.5 307.7 101.5 303.7 95.5 299.5 91.1 295.1 88.1 290.7 85.1 287.4 83.5 285.1 83.2 282.8 82.9 279.2 83.4 274.6 84.5 263.5 87.1 252.4 93.3 241.4 103.2 241.4 103.2 241.4 103.2 241.4 103.2 235.6 107 229.8 111.8 224.1 117.5 220.5 121.1 217.8 126 215.9 132.2 214.6 127.5 213.3 123.1 212.2 119L212 118.5C208.9 106.5 204.1 98.1 200.6 92.7 197.2 87.3 193.5 83.3 189.7 80.6 185.9 77.9 183 76.4 181 76.1 179 75.9 176 76.3 171.9 77.2 162.7 79.3 153.5 84.5 144.5 92.8 139.1 96.3 133.8 100.8 128.5 106.2 121.9 113.1 118.7 125.4 119.1 143.3 107.8 120.3 87.1 113.9 56.6 124.2 48.1 127.1 39.6 132 31 138.5 22.4 145 16.6 151.4 13 157.3 13.4 158.3 13.8 159.3 14.2 160.2 8.3 165.3 3.8 170.4.7 175.5L.1 176.5.5 177.6C13.2 210 25.4 238.7 37.8 265.5L58.8 310.2C81.3 358.9 82 359.2 83.3 360L84.3 360.5 103 353.3 110.9 349.6C122.8 344.1 133.8 336.7 143.4 327.7 153.4 318.2 159.5 309.5 161.9 301 162.6 298.5 163.1 296 163.3 293.6 166.4 289.2 168.6 284.9 169.8 280.8 170.8 277.3 171.3 273.9 171.3 270.4 173.6 270.9 175.9 271.2 178.2 271.2 180.7 271.2 183.2 270.9 185.7 270.4 193 268.8 198.9 266.2 203.6 262.6 208.6 258.9 212.9 253.2 216.3 245.8 216.3 245.8 216.3 245.7 216.3 245.7 216.3 245.7 216.3 245.7 216.3 245.7 218.9 242.7 221.2 238.9 223.2 234.5 223.5 233.8 223.9 233 224.1 232.2 232.7 264.3 244.1 284.7 258.6 294.2 264.8 298.3 271.6 300.3 278.8 300.3 281.7 300.3 284.7 300 287.8 299.3 295.9 297.5 302.6 294.6 308.4 290.5 314 286.5 318.8 280.5 322.7 272.7 326.2 269.1 329.2 264.5 331.8 259.2 335.5 251.6 337.7 241.1 337.8 228L367.8 216.3 366.7 208.3 376.8 204.4zM166.5 109.5C172 108.3 177.3 114.2 182.5 127.3 187.7 140.4 191.6 153.8 194.3 167.4 197 181 198.1 194.9 197.4 209 196.7 223.1 194.6 230.5 191.1 231.2 190.6 231.2 190.1 231.1 189.5 230.8L189.5 230.8C190 227.6 190.4 223.8 190.6 219.3 191.3 205.2 190.2 191 187.4 177.1 184.6 163.1 180.6 149.5 175.5 136.6 170.8 124.7 165.7 118.3 160.2 117.3 161.5 112.7 163.6 110.1 166.5 109.5zM159.4 122.1C163 122.9 167.1 128.5 171 138.4 176 151 179.9 164.4 182.7 178.1 185.4 191.6 186.5 205.3 185.8 219.1 185.6 222.3 185.4 225 185.2 227.2 182.7 224.1 180 219.3 177 212.7 171.6 200.5 167.4 186.4 164.3 170.4 160 148.2 158.4 132.2 159.4 122.1zM125.3 190.4C129.5 210.7 134.5 227 140.4 239.6 131.5 239.7 123.7 240.9 117.1 243.2 121.6 223 124.4 205.3 125.3 190.4zM104.1 263.7L103.5 266.4 107.6 265C111.5 263.7 115.8 262.7 120.6 262.1 121.3 262.3 122 262.6 122.7 263 127.6 265.3 130.9 268.6 132.9 273L133.9 274.7C135.2 279 135.2 281.4 134.8 285 134.4 288.6 133.4 291.6 132 293.9 130.9 295.7 129.3 297.4 127.4 299 127.4 298.4 127.3 297.7 127.2 296.9L126.7 294.9 125.1 291.4C122.8 286.5 119.1 282.9 113.7 280.3 111.5 279.3 109.3 278.6 106.9 278.3L101.1 265.6C102 264.8 103 264.2 104.1 263.7zM122.2 302.7C120.9 303.5 119.7 304.1 118.8 304.5L109.3 283.8C110 284 110.7 284.3 111.4 284.6 114.5 286.1 116.9 287.9 118.6 290.2L120 293.3C121.5 296.7 122.3 299.9 122.2 302.7zM67 150.2C74.5 147.6 80.2 150.5 84 158.6 94.9 181.9 96.9 209.8 89.8 242.5L86 233.1C87.1 212.2 83.7 193.4 76 177 72.1 168.7 66.8 166.2 61.9 166.2 60.9 166.2 59.8 166.3 58.8 166.5L55.6 158.7C59.2 154.5 63.1 151.6 67 150.2zM81.1 221.5L60.6 171.3C65.3 170.8 68.7 173.3 71.5 179.2 77.4 191.7 80.7 205.9 81.1 221.5zM140.1 324.1C130.9 332.8 120.4 339.8 108.9 345.1L101.2 348.7 85.4 354.8C81.9 348.6 70 322.9 63.3 308.4L42.3 263.7C30 237.5 18 209.2 5.5 177.3 8.1 173.3 11.6 169.3 16.1 165.3 26.3 191.1 37.6 217.9 50.3 245.3L71.3 290C85.9 321.5 93.6 337.7 94.7 338.3L112.4 331.5 120.2 327.9C131.8 322.5 142.4 315.4 152 306.4 153.6 304.9 155.1 303.4 156.5 301.9 154 308.8 148.4 316.2 140.1 324.1zM200.8 258.7C196.6 261.9 191.4 264.2 184.8 265.7 179.8 266.8 175.2 266.7 170.9 265.4 170.4 262.6 169.5 259.9 168.3 257.1 163.3 246.2 155.8 240.4 146 239.7 139.7 226.9 134.3 209.7 129.9 188 121.5 146.5 122.3 120.2 132.2 109.9 132.7 109.3 133.2 108.8 133.8 108.3 129.1 122.4 130.1 145.7 136.7 178.3 148.6 237.2 167.7 263.7 194.6 257.9 198.7 257 202.4 255.7 205.8 254.1 204.1 255.8 202.5 257.4 200.8 258.7zM267.7 120.7C274.1 119.3 280.2 125.8 286 140.3 291.8 154.8 296.1 169.7 299.2 184.8 302.2 199.9 303.3 215.3 302.3 231.1 301.3 246.7 298.8 255 294.7 255.9 294 255.9 293.3 255.7 292.5 255.4L292.5 255.4C293.1 251.9 293.6 247.7 293.9 242.8 294.9 227.1 293.8 211.3 290.7 195.9 287.7 180.7 283.2 165.6 277.4 151 272.1 137.9 266.5 130.9 260.3 129.8 261.7 124.4 264.2 121.4 267.7 120.7zM259.4 134.6C264.9 135.6 269.6 144.8 272.9 152.7 278.6 167 283 181.9 285.9 196.8 288.9 211.8 289.9 227.1 289 242.4 288.8 246.1 288.5 249.2 288.1 251.8 285.1 248.4 282 242.9 278.6 235.3 272.6 221.7 267.8 206 264.4 188.3 259.7 163.7 258 145.8 259.4 134.6zM305.8 286.5C300.6 290.3 294.4 292.9 287 294.5 277.5 296.6 269.1 295.1 261.5 290.1 247 280.6 235.4 257.9 226.9 222.6L226.9 222.6C227.8 217.7 228.2 212.1 228.2 205.7 228.2 193.6 226.5 179 223.2 162.2 221.9 155.2 220.3 148.6 218.6 142.5 220 132.8 222.9 125.7 227.4 121.2 228.2 120.4 229 119.6 229.9 118.8 224 134.5 224.9 160.7 232.2 197.4 245.3 263 267.1 292.2 298.4 285.4 303.4 284.3 308 282.7 312.1 280.6 310.2 283 308.1 285 305.8 286.5zM341.2 221.5L316.9 69 326.9 66.8 350.6 214.6 362.4 210 362.8 213 341.2 221.5zM437.5 195C437.1 190.7 435.3 187.4 431.9 185 428.6 182.6 423.3 181.6 416.3 182.3 410.1 182.9 405.4 185.2 402.3 189.1 396 190.3 391.3 193.4 388.3 198.3 385 203.7 383.5 209 383.8 214.2 384.1 219.5 385.9 223.9 389.2 227.3 392.2 230.3 396.4 231.8 401.7 231.8 402.7 231.8 403.7 231.8 404.7 231.7L411.8 230.2C417.4 228.7 421.6 226.2 424.6 222.6 426 220.9 427.1 218.9 427.9 216.7 435.4 212.6 438.6 205.4 437.5 195zM421 219.3C417.7 223.3 412 225.7 404.1 226.4L400.9 226.7C397.4 226.6 394.7 225.5 392.9 223.7 390.5 221.2 389.2 217.9 388.9 213.7 388.6 209.6 389.9 205.2 392.7 200.7 394.2 198.2 396.3 196.3 399.1 195.1 397.7 198.5 397.1 201.9 397.3 205.1 397.6 209.8 399.1 213.7 402 216.6 404.9 219.5 409.4 220.8 415.6 220.2L415.2 220C417.4 219.8 419.4 219.5 421.3 219 421.1 219.2 421 219.3 421 219.3zM427.5 167L422.6.4 390.6 6.8 390.9 10.9 377.3 13.7 389.9 180.7 419.2 178 418.9 167.8 427.5 167zM414.3 173.5L394.5 175.3 382.5 17.5 391.3 15.7 402.9 169.1 414.1 168.1 414.3 173.5z"/>
  </g>
</svg>
